assets/img/careers/noun_Video Chat_21483.svg

<svg width="59" height="70" viewBox="0 0 59 70" fill="none" xmlns="http://www.w3.org/2000/svg">
<path d="M19.1498 14.0279C20.3023 14.0279 21.2366 13.0936 21.2366 11.9411C21.2366 10.7886 20.3023 9.85428 19.1498 9.85428C17.9973 9.85428 17.063 10.7886 17.063 11.9411C17.063 13.0936 17.9973 14.0279 19.1498 14.0279Z" fill="#5e2ced"/>
<path d="M57.1154 33.0934H43.0133C42.9321 32.6673 42.8424 32.2389 42.7464 31.8089H50.6949C54.4565 31.8089 54.4565 26.8275 50.6949 26.8275H44.0325L36.9877 15.9033C35.4128 13.4809 32.7415 13.331 32.7415 13.331H31.6216C31.133 13.5558 30.6188 13.7322 30.0834 13.8539C30.0561 13.8601 30.0272 13.8648 29.9999 13.8703C29.7829 13.9171 29.5621 13.953 29.3389 13.9819C29.2749 13.9897 29.2117 13.9983 29.1469 14.0045C28.8925 14.0303 28.6357 14.0474 28.3743 14.0474C28.1144 14.0474 27.8592 14.0303 27.6071 14.0045C27.5307 13.9967 27.4565 13.9866 27.3816 13.9764C27.1927 13.9522 27.0054 13.9202 26.8197 13.882C26.7541 13.8687 26.6878 13.857 26.6223 13.8414C26.1025 13.7197 25.6023 13.5488 25.127 13.3302H24.1983C24.1983 13.3302 21.8016 13.4489 20.2104 15.5209C19.8709 15.3983 19.5166 15.3242 19.1498 15.3242C17.0934 15.3242 15.3859 17.429 15.0355 19.522H12.7449V9.09493H21.1133C20.8222 8.36213 20.6419 7.57547 20.5865 6.75369H10.4021V21.8641H16.0929L12.9057 26.8064H10.1454C6.38379 26.8064 6.38379 31.7878 10.1454 31.7878H13.8641C13.7657 32.2248 13.6752 32.6603 13.5925 33.0934H1.17062C0.524438 33.0934 0 33.6171 0 34.2641C0 34.911 0.524438 35.4347 1.17062 35.4347H13.2272C13.0758 36.6451 12.9861 37.8196 12.9861 38.9106C12.9861 43.3933 13.5417 48.9749 17.873 52.3837L18.1914 52.6342H27.192V61.8361H19.9606L19.6141 63.7286C17.9628 63.8215 16.6439 65.1817 16.6439 66.8557C16.6439 68.5898 18.0549 70 19.7882 70C21.5215 70 22.9325 68.589 22.9325 66.8557C22.9325 65.9153 22.5087 65.0795 21.8516 64.502L21.9109 64.1773H26.6722C25.7654 64.7299 25.1535 65.7186 25.1535 66.8557C25.1535 68.5898 26.5645 70 28.2978 70C30.0311 70 31.4421 68.589 31.4421 66.8557C31.4421 65.7186 30.8303 64.7299 29.9234 64.1773H34.8338L34.8736 64.3927C34.1408 64.9687 33.66 65.8529 33.66 66.8549C33.66 68.589 35.071 69.9992 36.8043 69.9992C38.5376 69.9992 39.9486 68.5882 39.9486 66.8549C39.9486 65.234 38.7116 63.912 37.1344 63.7442L36.7848 61.8361H29.5324V52.6342H38.1349L38.4471 52.3985C43.0297 48.946 43.6173 43.3762 43.6173 38.9106C43.6173 37.8196 43.5284 36.6451 43.3762 35.4347H57.113C57.7592 35.4347 58.2836 34.911 58.2836 34.2641C58.2836 33.6171 57.7616 33.0934 57.1154 33.0934ZM19.7897 67.6588C19.3472 67.6588 18.9867 67.2982 18.9867 66.8557C18.9867 66.4132 19.3472 66.0527 19.7897 66.0527C20.2322 66.0527 20.5928 66.4132 20.5928 66.8557C20.5928 67.2982 20.2322 67.6588 19.7897 67.6588ZM36.8059 66.0519C37.2484 66.0519 37.6089 66.4124 37.6089 66.8549C37.6089 67.2974 37.2484 67.658 36.8059 67.658C36.3634 67.658 36.0028 67.2974 36.0028 66.8549C36.0028 66.4124 36.3634 66.0519 36.8059 66.0519ZM28.2994 67.6588C27.8569 67.6588 27.4963 67.2982 27.4963 66.8557C27.4963 66.4132 27.8569 66.0527 28.2994 66.0527C28.7419 66.0527 29.1024 66.4132 29.1024 66.8557C29.1024 67.2982 28.7419 67.6588 28.2994 67.6588ZM37.3412 50.293H19.0156C16.4347 48.079 15.3273 44.642 15.3273 38.9106C15.3273 34.4326 16.7805 28.5608 19.0288 23.9525C20.5428 20.8495 23.7613 15.6442 28.3033 15.6442C32.8437 15.6442 36.0614 20.8495 37.5761 23.9525C39.8253 28.5608 41.2777 34.4319 41.2777 38.9106C41.2784 44.6124 40.0969 48.0485 37.3412 50.293Z" fill="#5e2ced"/>
<path d="M28.3743 12.4866C31.8224 12.4866 34.6176 9.6914 34.6176 6.24331C34.6176 2.79523 31.8224 0 28.3743 0C24.9262 0 22.131 2.79523 22.131 6.24331C22.131 9.6914 24.9262 12.4866 28.3743 12.4866Z" fill="#5e2ced"/>
<path d="M21.2858 46.9551C20.6396 46.9551 20.1152 46.4307 20.1152 45.7845V27.1147C20.1152 26.4677 20.6396 25.9441 21.2858 25.9441C21.932 25.9441 22.4564 26.4677 22.4564 27.1147V45.7845C22.4564 46.4307 21.932 46.9551 21.2858 46.9551Z" fill="#5e2ced"/>
<path d="M28.3751 46.9551C27.7289 46.9551 27.2045 46.4307 27.2045 45.7845V27.1147C27.2045 26.4677 27.7289 25.9441 28.3751 25.9441C29.0213 25.9441 29.5457 26.4677 29.5457 27.1147V45.7845C29.5457 46.4307 29.0213 46.9551 28.3751 46.9551Z" fill="#5e2ced"/>
<path d="M35.4628 46.9551C34.8166 46.9551 34.2921 46.4307 34.2921 45.7845V27.1147C34.2921 26.4677 34.8166 25.9441 35.4628 25.9441C36.1089 25.9441 36.6334 26.4677 36.6334 27.1147V45.7845C36.6334 46.4307 36.1089 46.9551 35.4628 46.9551Z" fill="#5e2ced"/>
<path d="M31.8698 21.8812H25.0302C24.384 21.8812 23.8596 21.3576 23.8596 20.7106C23.8596 20.0636 24.384 19.54 25.0302 19.54H31.8698C32.5159 19.54 33.0404 20.0636 33.0404 20.7106C33.0404 21.3576 32.5159 21.8812 31.8698 21.8812Z" fill="#5e2ced"/>
</svg>

<?xml version="1.0" encoding="utf-8"?>
<!-- Generator: Adobe Illustrator 24.0.1, SVG Export Plug-In . SVG Version: 6.00 Build 0)  -->
<svg version="1.1" id="Слой_1" xmlns="http://www.w3.org/2000/svg" xmlns:xlink="http://www.w3.org/1999/xlink" x="0px" y="0px"
	 viewBox="0 0 59 70" style="enable-background:new 0 0 59 70;" xml:space="preserve">
<style type="text/css">
	.st0{fill:#FFFFFF;}
</style>
<path class="st0" d="M19.1,14c1.2,0,2.1-0.9,2.1-2.1s-0.9-2.1-2.1-2.1s-2.1,0.9-2.1,2.1S18,14,19.1,14z"/>
<path class="st0" d="M57.1,33.1H43c-0.1-0.4-0.2-0.9-0.3-1.3h7.9c3.8,0,3.8-5,0-5H44l-7-10.9c-1.6-2.4-4.2-2.6-4.2-2.6h-1.1
	c-0.5,0.2-1,0.4-1.5,0.5c0,0-0.1,0-0.1,0c-0.2,0-0.4,0.1-0.7,0.1c-0.1,0-0.1,0-0.2,0c-0.3,0-0.5,0-0.8,0c-0.3,0-0.5,0-0.8,0
	c-0.1,0-0.2,0-0.2,0c-0.2,0-0.4-0.1-0.6-0.1c-0.1,0-0.1,0-0.2,0c-0.5-0.1-1-0.3-1.5-0.5h-0.9c0,0-2.4,0.1-4,2.2
	c-0.3-0.1-0.7-0.2-1.1-0.2c-2.1,0-3.8,2.1-4.1,4.2h-2.3V9.1h8.4c-0.3-0.7-0.5-1.5-0.5-2.3H10.4v15.1h5.7l-3.2,4.9h-2.8
	c-3.8,0-3.8,5,0,5h3.7c-0.1,0.4-0.2,0.9-0.3,1.3H1.2c-0.6,0-1.2,0.5-1.2,1.2c0,0.6,0.5,1.2,1.2,1.2h12.1c-0.2,1.2-0.2,2.4-0.2,3.5
	c0,4.5,0.6,10.1,4.9,13.5l0.3,0.3h9v9.2H20l-0.3,1.9c-1.7,0.1-3,1.5-3,3.1c0,1.7,1.4,3.1,3.1,3.1c1.7,0,3.1-1.4,3.1-3.1
	c0-0.9-0.4-1.8-1.1-2.4l0.1-0.3h4.8c-0.9,0.6-1.5,1.5-1.5,2.7c0,1.7,1.4,3.1,3.1,3.1s3.1-1.4,3.1-3.1c0-1.1-0.6-2.1-1.5-2.7h4.9
	l0,0.2c-0.7,0.6-1.2,1.5-1.2,2.5c0,1.7,1.4,3.1,3.1,3.1c1.7,0,3.1-1.4,3.1-3.1c0-1.6-1.2-2.9-2.8-3.1l-0.3-1.9h-7.3v-9.2h8.6
	l0.3-0.2c4.6-3.5,5.2-9,5.2-13.5c0-1.1-0.1-2.3-0.2-3.5h13.7c0.6,0,1.2-0.5,1.2-1.2C58.3,33.6,57.8,33.1,57.1,33.1z M19.8,67.7
	c-0.4,0-0.8-0.4-0.8-0.8c0-0.4,0.4-0.8,0.8-0.8c0.4,0,0.8,0.4,0.8,0.8C20.6,67.3,20.2,67.7,19.8,67.7z M36.8,66.1
	c0.4,0,0.8,0.4,0.8,0.8c0,0.4-0.4,0.8-0.8,0.8S36,67.3,36,66.9C36,66.4,36.4,66.1,36.8,66.1z M28.3,67.7c-0.4,0-0.8-0.4-0.8-0.8
	c0-0.4,0.4-0.8,0.8-0.8c0.4,0,0.8,0.4,0.8,0.8C29.1,67.3,28.7,67.7,28.3,67.7z M37.3,50.3H19c-2.6-2.2-3.7-5.7-3.7-11.4
	c0-4.5,1.5-10.3,3.7-15c1.5-3.1,4.7-8.3,9.3-8.3c4.5,0,7.8,5.2,9.3,8.3c2.2,4.6,3.7,10.5,3.7,15C41.3,44.6,40.1,48,37.3,50.3z"/>
<path class="st0" d="M28.4,12.5c3.4,0,6.2-2.8,6.2-6.2c0-3.4-2.8-6.2-6.2-6.2s-6.2,2.8-6.2,6.2C22.1,9.7,24.9,12.5,28.4,12.5z"/>
<path class="st0" d="M21.3,47c-0.6,0-1.2-0.5-1.2-1.2V27.1c0-0.6,0.5-1.2,1.2-1.2c0.6,0,1.2,0.5,1.2,1.2v18.7
	C22.5,46.4,21.9,47,21.3,47z"/>
<path class="st0" d="M28.4,47c-0.6,0-1.2-0.5-1.2-1.2V27.1c0-0.6,0.5-1.2,1.2-1.2c0.6,0,1.2,0.5,1.2,1.2v18.7
	C29.5,46.4,29,47,28.4,47z"/>
<path class="st0" d="M35.5,47c-0.6,0-1.2-0.5-1.2-1.2V27.1c0-0.6,0.5-1.2,1.2-1.2c0.6,0,1.2,0.5,1.2,1.2v18.7
	C36.6,46.4,36.1,47,35.5,47z"/>
<path class="st0" d="M31.9,21.9H25c-0.6,0-1.2-0.5-1.2-1.2s0.5-1.2,1.2-1.2h6.8c0.6,0,1.2,0.5,1.2,1.2S32.5,21.9,31.9,21.9z"/>
</svg>
